build/svg/cmd/sc_reload.svg

<?xml version="1.0" encoding="UTF-8" standalone="no"?>
<svg
   xmlns:dc="http://purl.org/dc/elements/1.1/"
   xmlns:cc="http://creativecommons.org/ns#"
   xmlns:rdf="http://www.w3.org/1999/02/22-rdf-syntax-ns#"
   xmlns:svg="http://www.w3.org/2000/svg"
   xmlns="http://www.w3.org/2000/svg"
   xmlns:sodipodi="http://sodipodi.sourceforge.net/DTD/sodipodi-0.dtd"
   xmlns:inkscape="http://www.inkscape.org/namespaces/inkscape"
   viewBox="0 0 16 16"
   version="1.1"
   id="svg4"
   sodipodi:docname="sc_reload.svg"
   inkscape:export-filename="/home/jupiter007/Libreoffice yaru theme fullcolor/build/cmd/sc_reload.png"
   inkscape:export-xdpi="95"
   inkscape:export-ydpi="95"
   inkscape:version="0.92.5 (2060ec1f9f, 2020-04-08)"><metadata
   id="metadata10">
  <rdf:RDF>
    <cc:Work
       rdf:about="">
      <dc:format>image/svg+xml</dc:format>
      <dc:type
         rdf:resource="http://purl.org/dc/dcmitype/StillImage" />
    </cc:Work>
  </rdf:RDF>
</metadata>
<defs
   id="defs8" />
<sodipodi:namedview
   pagecolor="#ffffff"
   bordercolor="#666666"
   borderopacity="1"
   objecttolerance="10"
   gridtolerance="10"
   guidetolerance="10"
   inkscape:pageopacity="0"
   inkscape:pageshadow="2"
   inkscape:window-width="1920"
   inkscape:window-height="1011"
   id="namedview6"
   showgrid="true"
   inkscape:zoom="10.429825"
   inkscape:cx="-34.644217"
   inkscape:cy="10.52242"
   inkscape:window-x="0"
   inkscape:window-y="32"
   inkscape:window-maximized="1"
   inkscape:current-layer="svg4">
  <inkscape:grid
     type="xygrid"
     id="grid817" />
</sodipodi:namedview>
/&gt;<circle
   style="opacity:1;fill:#762572;fill-opacity:1;fill-rule:evenodd;stroke:none;stroke-width:2;stroke-linecap:butt;stroke-linejoin:round;stroke-miterlimit:4;stroke-dasharray:none;stroke-opacity:1"
   id="path819"
   cx="8"
   cy="8"
   r="6" />
<path
   style="opacity:1;fill:#ffffff;fill-opacity:1;fill-rule:evenodd;stroke:none;stroke-width:2;stroke-linecap:butt;stroke-linejoin:round;stroke-miterlimit:4;stroke-dasharray:none;stroke-opacity:1"
   d="M 8 4 A 4 4 0 0 0 5.9726562 4.5585938 L 7.4824219 6.0683594 A 2 2 0 0 1 8 6 A 2 2 0 0 1 10 8 A 2 2 0 0 1 9.9296875 8.515625 L 11.441406 10.027344 A 4 4 0 0 0 12 8 A 4 4 0 0 0 8 4 z M 4.5585938 5.9726562 A 4 4 0 0 0 4 8 A 4 4 0 0 0 8 12 A 4 4 0 0 0 10.027344 11.441406 L 8.5175781 9.9316406 A 2 2 0 0 1 8 10 A 2 2 0 0 1 6 8 A 2 2 0 0 1 6.0703125 7.484375 L 4.5585938 5.9726562 z "
   id="path821" />
</svg>

<svg xmlns="http://www.w3.org/2000/svg" viewBox="0 0 16 16">/&gt;<circle cx="8" cy="8" r="6" fill="#762572" fill-rule="evenodd"/><path d="M8 4a4 4 0 00-2.027.559l1.51 1.51A2 2 0 018 6a2 2 0 012 2 2 2 0 01-.07.516l1.511 1.511A4 4 0 0012 8a4 4 0 00-4-4zM4.559 5.973A4 4 0 004 8a4 4 0 004 4 4 4 0 002.027-.559l-1.51-1.51A2 2 0 018 10a2 2 0 01-2-2 2 2 0 01.07-.516L4.56 5.973z" fill="#fff" fill-rule="evenodd"/></svg>
